panel/zim-panel.svg

<?xml version="1.0" encoding="UTF-8" standalone="no"?>
<svg
   width="24"
   height="24"
   version="1.1"
   id="svg9"
   sodipodi:docname="zim-panel.svg"
   inkscape:version="1.2.1 (9c6d41e410, 2022-07-14, custom)"
   xmlns:inkscape="http://www.inkscape.org/namespaces/inkscape"
   xmlns:sodipodi="http://sodipodi.sourceforge.net/DTD/sodipodi-0.dtd"
   xmlns="http://www.w3.org/2000/svg"
   xmlns:svg="http://www.w3.org/2000/svg">
  <sodipodi:namedview
     id="namedview11"
     pagecolor="#000000"
     bordercolor="#000000"
     borderopacity="0.25"
     inkscape:showpageshadow="2"
     inkscape:pageopacity="0"
     inkscape:pagecheckerboard="0"
     inkscape:deskcolor="#d1d1d1"
     showgrid="false"
     inkscape:zoom="133.83333"
     inkscape:cx="12"
     inkscape:cy="11.96264"
     inkscape:window-width="1920"
     inkscape:window-height="1051"
     inkscape:window-x="0"
     inkscape:window-y="29"
     inkscape:window-maximized="1"
     inkscape:current-layer="svg9" />
  <defs
     id="defs3">
    <style
       id="current-color-scheme"
       type="text/css">
   .ColorScheme-Text { color:#eeeeec; } .ColorScheme-Highlight { color:#367bf0; } .ColorScheme-NeutralText { color:#ffcc44; } .ColorScheme-PositiveText { color:#3db47e; } .ColorScheme-NegativeText { color:#dd4747; }
  </style>
  </defs>
  <path
     style="opacity:0.35;fill:currentColor"
     class="ColorScheme-Text"
     d="m 12.001,4 c -4.432,0 -8,3.568 -8,8 0,0.432065 0.034348,0.855869 0.1000862,1.268936 0.061611,0.387132 0.305764,-0.0064 0.4200844,0.359867 l -0.030978,-0.02581 c 0.076954,-0.30006 0.07765,0.13896 0.2432955,-0.151376 C 4.8797455,13.195266 5.0655743,12.95111 5.2998,12.734 5.8872,12.19 6.5706,12.043 7.2783,12.031 7.3954,11.784 7.4894,11.52 7.7236,11.348 7.8216,11.275 7.9291,11.305 8.0342,11.258 L 8.0557,11.203 C 8.3391,10.666 8.7093,10.26 9.2275,9.6758 9.9345,8.8788 11.032,8.1397 12.05,7.4785 13.068,6.8169 16.099,5.1328 16.099,5.1328 14.9,4.4185 13.503,4 12.001,4 Z m 7.365,4.8652 c 0,0 -2.126,2.7138 -2.941,3.6038 -0.814,0.888 -1.722,1.846 -2.627,2.414 -0.596,0.374 -1.047,0.493 -1.526,0.676 -0.075,0.423 -0.263,0.823 -0.634,1.097 -0.23,0.17 -0.509,0.154 -0.776,0.196 -0.125,0.453 -0.343,0.907 -0.736,1.308 l -0.02,0.02 -0.019,0.019 c -0.269618,0.24705 -0.5690353,0.426398 -0.8777891,0.553026 -0.3123772,0.128115 -0.123473,0.30734 -0.4337726,0.343047 l 0.2458164,-0.19204 C 9.0902616,19.063859 8.7776894,19.335538 9.129443,19.470451 10.019798,19.811943 10.987432,20 12.001,20 c 4.432,0 8,-3.568 8,-8 0,-1.114 -0.227,-2.1727 -0.635,-3.1348 z"
     id="path5"
     sodipodi:nodetypes="sssccsccccccccscccccccccsccsssc" />
  <path
     style="fill:currentColor"
     class="ColorScheme-Text"
     d="m 19.175,5.0078 c -0.309,-0.0345 -0.603,0.0827 -0.885,0.1817 0,0 -0.968,0.4308 -1.484,0.6972 -0.517,0.2664 -1.023,0.5437 -1.418,0.7656 -0.396,0.2219 -1.8,1.0186 -2.793,1.6641 -0.993,0.6454 -2.075,1.4101 -2.6194,2.0236 -0.2090825,0.23516 -0.3827476,0.432372 -0.5306252,0.611271 -0.042661,0.05161 0.062265,0.05607 0.023665,0.105104 0.05676,0.01848 -0.032746,0.08532 0.022091,0.10926 0.2716112,0.118589 0.516311,0.304095 0.701269,0.555365 l 1.819,2.467 c 0.07775,0.105738 0.137967,0.219939 0.186765,0.337432 0.01397,0.03363 0.101058,0.01751 0.113297,0.05155 0.04128,-0.02078 0.009,0.0078 0.05149,-0.0145 C 12.618664,14.428256 12.90164,14.263993 13.267,14.035 13.966,13.596 14.894,12.66 15.688,11.793 16.483,10.926 17.483,9.6838 17.755,9.3359 18.027,8.9879 18.37,8.5406 18.706,8.082 19.042,7.6233 19.369,7.153 19.61,6.752 19.731,6.5514 19.831,6.3688 19.899,6.209 19.968,6.0493 20.016,5.9189 19.997,5.7754 19.965,5.5368 19.845,5.3966 19.774,5.3242 L 19.765,5.3125 C 19.681,5.2113 19.587,5.1475 19.489,5.0996 19.383,5.0483 19.278,5.0193 19.175,5.0078 Z M 8.8857,12.01 C 8.6921,11.98 8.4882,12.026 8.3174,12.152 7.9758,12.404 7.9035,12.881 8.1553,13.223 l 1.8164,2.466 c 0.2513,0.342 0.7303,0.414 1.0723,0.163 0.342,-0.252 0.414,-0.729 0.162,-1.071 L 9.3877,12.314 C 9.2618,12.144 9.0793,12.039 8.8857,12.01 Z M 6.9637642,13.138059 C 6.8791781,13.150666 6.8693,13.062058 6.7868233,13.082111 6.4636742,13.160679 6.167195,13.29453 5.9795,13.469 c -0.3233,0.299 -0.5264,0.704 -0.6348,1.127 -0.178,0.693 -0.1899,1.69 -0.3262,2.427 -0.0676,0.366 -0.3768,0.936 -0.9531,1.674 -0.1472,0.248 0,0.28 0,0.28 0.0826,0.058 0.2332,-0.001 0.3086,-0.034 1.3335,-1.096 2.2144,-0.94 3.7754,-0.947 0.4592,-0.053 0.9133,-0.216 1.2617,-0.535 0.1144122,-0.116737 0.2029285,-0.226323 0.2741186,-0.332114 0.069681,-0.103549 -0.0033,-0.141468 0.041219,-0.240892 -0.054756,-0.02467 0.017578,-0.113875 -0.034811,-0.1437 C 9.4913347,16.630267 9.3106318,16.477997 9.167,16.283 L 7.3486,13.816 C 7.2079034,13.625389 7.1178933,13.411947 7.0675052,13.191479 c -0.011999,-0.0525 -0.096086,-3.37e-4 -0.103741,-0.05342 z"
     id="path7"
     sodipodi:nodetypes="scccccscsccscsccccccccccscscccccccsccccccccscsccsc" />
</svg>

<svg xmlns="http://www.w3.org/2000/svg" width="24" height="24" version="1.1">
 <defs>
  <style id="current-color-scheme" type="text/css">
   .ColorScheme-Text { color:#eeeeec; } .ColorScheme-Highlight { color:#367bf0; } .ColorScheme-NeutralText { color:#ffcc44; } .ColorScheme-PositiveText { color:#3db47e; } .ColorScheme-NegativeText { color:#dd4747; }
  </style>
 </defs>
 <path style="opacity:.35;fill:currentColor" class="ColorScheme-Text" d="M 12.001,4 C 7.569,4 4.001,7.568 4.001,12 4.001,12.837 4.1299,13.643 4.3662,14.4 L 4.376,14.348 C 4.5209,13.783 4.8003,13.197 5.2998,12.734 5.8872,12.19 6.5706,12.043 7.2783,12.031 7.3954,11.784 7.4894,11.52 7.7236,11.348 7.8216,11.275 7.9291,11.305 8.0342,11.258 L 8.0557,11.203 C 8.3391,10.666 8.7093,10.26 9.2275,9.6758 9.9345,8.8788 11.032,8.1397 12.05,7.4785 13.068,6.8169 16.099,5.1328 16.099,5.1328 14.9,4.4185 13.503,4 12.001,4 Z M 19.366,8.8652 C 19.366,8.8652 17.24,11.579 16.425,12.469 15.611,13.357 14.703,14.315 13.798,14.883 13.202,15.257 12.751,15.376 12.272,15.559 12.197,15.982 12.009,16.382 11.638,16.656 11.408,16.826 11.129,16.81 10.862,16.852 10.737,17.305 10.519,17.759 10.126,18.16 L 10.106,18.18 10.087,18.199 C 9.5446,18.696 8.8816,18.919 8.2646,18.99 L 8.1123,18.996 C 9.2624,19.634 10.587,20 12.001,20 16.433,20 20.001,16.432 20.001,12 20.001,10.886 19.774,9.8273 19.366,8.8652 Z"/>
 <path style="fill:currentColor" class="ColorScheme-Text" d="M 19.175,5.0078 C 18.866,4.9733 18.572,5.0905 18.29,5.1895 18.29,5.1895 17.322,5.6203 16.806,5.8867 16.289,6.1531 15.783,6.4304 15.388,6.6523 14.992,6.8742 13.588,7.6709 12.595,8.3164 11.602,8.9618 10.52,9.7265 9.9756,10.34 9.7062,10.643 9.4956,10.883 9.3232,11.102 9.6611,11.212 9.9697,11.419 10.192,11.721 L 12.011,14.188 C 12.111,14.324 12.182,14.474 12.237,14.627 12.527,14.481 12.841,14.302 13.267,14.035 13.966,13.596 14.894,12.66 15.688,11.793 16.483,10.926 17.483,9.6838 17.755,9.3359 18.027,8.9879 18.37,8.5406 18.706,8.082 19.042,7.6233 19.369,7.153 19.61,6.752 19.731,6.5514 19.831,6.3688 19.899,6.209 19.968,6.0493 20.016,5.9189 19.997,5.7754 19.965,5.5368 19.845,5.3966 19.774,5.3242 L 19.765,5.3125 C 19.681,5.2113 19.587,5.1475 19.489,5.0996 19.383,5.0483 19.278,5.0193 19.175,5.0078 Z M 8.8857,12.01 C 8.6921,11.98 8.4882,12.026 8.3174,12.152 7.9758,12.404 7.9035,12.881 8.1553,13.223 L 9.9717,15.689 C 10.223,16.031 10.702,16.103 11.044,15.852 11.386,15.6 11.458,15.123 11.206,14.781 L 9.3877,12.314 C 9.2618,12.144 9.0793,12.039 8.8857,12.01 Z M 7.0381,13.033 C 6.6221,13.095 6.2151,13.25 5.9795,13.469 5.6562,13.768 5.4531,14.173 5.3447,14.596 5.1667,15.289 5.1548,16.286 5.0185,17.023 4.9509,17.389 4.6417,17.959 4.0654,18.697 3.9182,18.945 4.0654,18.977 4.0654,18.977 4.148,19.035 4.2986,18.976 4.374,18.943 5.7075,17.847 6.5884,18.003 8.1494,17.996 8.6086,17.943 9.0627,17.78 9.4111,17.461 9.6375,17.23 9.7625,17.027 9.8525,16.826 9.5884,16.707 9.3482,16.529 9.167,16.283 L 7.3486,13.816 C 7.1744,13.58 7.0779,13.309 7.0381,13.033 Z"/>
</svg>
